svgs/light/arrow-down-to-bracket.svg

<svg xmlns="http://www.w3.org/2000/svg" viewBox="0 0 448 512"><!-- Font Awesome Pro 6.0.0-alpha2 by @fontawesome - https://fontawesome.com License - https://fontawesome.com/license (Commercial License) --><path d="M224 352C228.094 352 232.188 350.438 235.312 347.312L379.312 203.312C385.562 197.062 385.562 186.937 379.312 180.688S362.937 174.438 356.688 180.688L240 297.375V16C240 7.156 232.844 0 224 0S208 7.156 208 16V297.375L91.312 180.688C85.062 174.438 74.937 174.438 68.688 180.688S62.438 197.063 68.688 203.312L212.688 347.312C215.812 350.438 219.906 352 224 352ZM448 432V336C448 327.156 440.844 320 432 320S416 327.156 416 336V432C416 458.469 394.469 480 368 480H80C53.531 480 32 458.469 32 432V336C32 327.156 24.844 320 16 320S0 327.156 0 336V432C0 476.125 35.875 512 80 512H368C412.125 512 448 476.125 448 432Z"/></svg>

<svg xmlns="http://www.w3.org/2000/svg" viewBox="0 0 448 512"><!--! Font Awesome Pro 6.0.0-alpha3 by @fontawesome - https://fontawesome.com License - https://fontawesome.com/license (Commercial License) --><path d="M224 352c4.094 0 8.188-1.562 11.31-4.688l144-144c6.25-6.25 6.25-16.38 0-22.62s-16.38-6.25-22.62 0L240 297.4V16C240 7.156 232.8 0 224 0S208 7.156 208 16v281.4L91.31 180.7c-6.25-6.25-16.38-6.25-22.62 0s-6.25 16.38 0 22.62l144 144C215.8 350.4 219.9 352 224 352zM448 432v-96c0-8.844-7.156-16-16-16S416 327.2 416 336v96c0 26.47-21.53 48-48 48h-288C53.53 480 32 458.5 32 432v-96C32 327.2 24.84 320 16 320S0 327.2 0 336v96C0 476.1 35.88 512 80 512h288C412.1 512 448 476.1 448 432z"/></svg>
